X: 17154
T: Hen And All Her Broth, The
R: jig
M: 6/8
K: Gmajor
G2E D2E G2A B3|cBA B2G A2G EDE|
G2E D2E G2A B2d|d2B ABA G3 G3:|
efg d2B c2e d3|d2B A2G E2A ABA|
efg d2B c2e d3|d2B ABA G3 G3|
efg d2B c2e d3|d2B A2G E2A ABA|
G2E D2E G2A B2d|d2B ABA G3 G3||

